src/apps/scalable/gnome-power-manager.svg

<svg id="Iterm" width="64" height="64" enable-background="new 0 0 1024 1024" image-rendering="optimizeSpeed" version="1.1" viewBox="0 0 64 64" xmlns="http://www.w3.org/2000/svg" xmlns:xlink="http://www.w3.org/1999/xlink">
 <defs>
  <linearGradient id="c">
   <stop stop-color="#8d8d8d" offset="0"/>
   <stop stop-color="#2d2d2d" offset=".64573"/>
   <stop stop-color="#808080" offset="1"/>
  </linearGradient>
  <linearGradient id="e">
   <stop stop-color="#6f6f6f" offset="0"/>
   <stop stop-color="#cecfce" offset=".12136"/>
   <stop stop-color="#848484" offset=".19726"/>
   <stop stop-color="#2d2d2d" offset=".33708"/>
   <stop stop-color="#565656" offset=".48889"/>
   <stop stop-color="#c0c0c0" offset=".61673"/>
   <stop stop-color="#3e3e3e" offset=".75655"/>
   <stop stop-color="#848585" offset=".91835"/>
   <stop stop-color="#969596" offset="1"/>
  </linearGradient>
  <linearGradient id="b" x1="-506.45" x2="-506.45" y1="-19.101" y2="1013.6" gradientTransform="matrix(.058824 0 0 .058824 61.791 3.1236)" gradientUnits="userSpaceOnUse">
   <stop stop-color="#262626" offset="0"/>
   <stop stop-color="#333" offset=".50769"/>
   <stop stop-color="#4a4a4a" offset="1"/>
  </linearGradient>
  <filter id="d" x="-.036" y="-.036" width="1.072" height="1.072" color-interpolation-filters="sRGB">
   <feGaussianBlur stdDeviation="0.90000006"/>
  </filter>
  <linearGradient id="m" x1="21" x2="45" y1="6" y2="6" gradientTransform="translate(-.85366 -.035324)" gradientUnits="userSpaceOnUse">
   <stop stop-color="#d8d9d9" offset="0"/>
   <stop stop-color="#d4d4d2" offset=".37243"/>
   <stop stop-color="#6d6d6d" offset="1"/>
  </linearGradient>
  <linearGradient id="l" x1="21" x2="45" y1="6" y2="6" gradientTransform="matrix(.20833 0 0 .25 25.155 3.4912)" gradientUnits="userSpaceOnUse">
   <stop stop-color="#d0d0d0" offset="0"/>
   <stop stop-color="#6d6d6d" offset="1"/>
  </linearGradient>
  <linearGradient id="k" x1="21" x2="45" y1="6" y2="6" gradientTransform="translate(-.85366 1.9647)" gradientUnits="userSpaceOnUse" xlink:href="#e"/>
  <linearGradient id="j" x1="21" x2="45" y1="6" y2="6" gradientTransform="matrix(.20833 0 0 .20833 25.155 4.9093)" gradientUnits="userSpaceOnUse" xlink:href="#e"/>
  <linearGradient id="i" x1="34" x2="25" y1="8" y2="8" gradientUnits="userSpaceOnUse" xlink:href="#c"/>
  <filter id="a" x="-.050573" y="-.12493" width="1.1011" height="1.2499" color-interpolation-filters="sRGB">
   <feGaussianBlur stdDeviation="0.20821576"/>
  </filter>
  <linearGradient id="h" x1="38" x2="34" y1="4" y2="9" gradientUnits="userSpaceOnUse" xlink:href="#c"/>
  <linearGradient id="f" x1="35" x2="24.983" y1="3" y2="4.6441" gradientUnits="userSpaceOnUse">
   <stop stop-color="#818181" offset="0"/>
   <stop stop-color="#454545" offset=".22222"/>
   <stop stop-color="#838383" offset=".37543"/>
   <stop stop-color="#646563" offset=".51522"/>
   <stop stop-color="#d6d6d5" offset="1"/>
  </linearGradient>
  <linearGradient id="o" x1="32" x2="32" y1="14.831" y2="21.831" gradientUnits="userSpaceOnUse">
   <stop stop-color="#8bbb3b" offset="0"/>
   <stop stop-color="#a3d65f" stop-opacity=".92157" offset="1"/>
  </linearGradient>
  <linearGradient id="n" x1="32" x2="32" y1="18.178" y2="43.309" gradientUnits="userSpaceOnUse">
   <stop stop-color="#8aba3b" offset="0"/>
   <stop stop-color="#5b9709" stop-opacity=".99608" offset="1"/>
  </linearGradient>
  <filter id="s" x="-.03913" y="-.12857" width="1.0783" height="1.2571" color-interpolation-filters="sRGB">
   <feGaussianBlur stdDeviation="0.375"/>
  </filter>
  <filter id="r" x="-.15668" y="-.5148" width="1.3134" height="2.0296" color-interpolation-filters="sRGB">
   <feGaussianBlur stdDeviation="1.5015083"/>
  </filter>
  <filter id="q" x="-.2568" y="-.033968" width="1.5136" height="1.0679" color-interpolation-filters="sRGB">
   <feGaussianBlur stdDeviation="0.50573731"/>
  </filter>
  <filter id="p" x="-.31697" y="-.033136" width="1.6339" height="1.0663" color-interpolation-filters="sRGB">
   <feGaussianBlur stdDeviation="0.49758301"/>
  </filter>
 </defs>
 <mask>
  <g id="g">
   <path d="m969.75 392.05c-1.1-4.35-2.35-9-3.65-13.6-1-3.4-2-6.85-3.15-10.5-1.6-5.15-3.4-10.5-5.3-15.85-6.45-18.25-14.15-36.05-23.15-53.65-3.8-7.4-7.95-14.95-12.3-22.4-20.3-34.5-45.8-67.2-76.35-97.75-72.6-72.6-157.15-116.65-253.65-132.05-16.25-2.6-32.8-4.4-50.05-5.35-9.7-0.55-19.85-0.85-30.1-0.85-9.35 0-18.6 0.25-27.9 0.75-118.35 6.1-220.3 51.95-305.85 137.5q-138.25 138.25-138.25 333.75c0 130.35 46.1 241.65 138.25 333.8 56.7 56.65 120.55 95.9 191.1 117.55 36.75 11.25 74.8 17.85 114.75 19.95h0.4c8.5 0.45 16.6 0.7 24.5 0.7h3c10.3 0 20.5-0.3 30.1-0.8 2.5-0.15 4.75-0.3 6.95-0.45 20.2-1.45 39.9-4.05 58.7-7.7 7.95-1.55 15.8-3.3 23.4-5.15 80.8-20.3 152.15-61.6 214.65-124.1 48.6-48.6 84.4-102.5 107.35-161.8 18.45-47.65 28.65-98.8 30.55-153.5 0.2-6.05 0.3-12.25 0.3-18.5v-3c-0.2-40.65-4.95-79.5-14.3-117z" fill="#fff"/>
  </g>
 </mask>
 <g fill-rule="evenodd">
  <circle cx="32" cy="32" r="30" filter="url(#d)" opacity=".25" style="paint-order:fill markers stroke"/>
  <circle cx="32" cy="32" r="30" fill="url(#b)" style="paint-order:fill markers stroke"/>
  <g transform="translate(0 8.9806)">
   <path d="m20.141 7.9434c-0.07562 0-0.13672 0.061094-0.13672 0.13672v31.727c0 0.01512 0.01112 0.02549 0.01563 0.03906a12 4 0 0 0-0.023442 0.1543 12 4 0 0 0 12 4 12 4 0 0 0 12-4 12 4 0 0 0-0.01367-0.13867c0.0085-0.01782 0.02148-0.03357 0.02148-0.05469v-31.727c0-0.075624-0.06109-0.13672-0.13672-0.13672z" fill="#d6d6d5" opacity=".15" style="paint-order:stroke fill markers"/>
   <ellipse transform="matrix(1.2927 0 0 1.0607 -8.0131 -2.71)" cx="32" cy="41.299" rx="11.5" ry="3.5" fill-opacity=".99608" filter="url(#r)" opacity=".5" stroke-width=".90752" style="paint-order:stroke fill markers"/>
   <path d="M 32,4 A 12,4 0 0 0 21.619141,6 H 20.064453 C 20.029004,6 20,6.029004 20,6.064453 v 1.871094 c 0,0.0043 0.007,0.0038 0.0078,0.0078 A 12,4 0 0 0 20,8 12,4 0 0 0 32,12 12,4 0 0 0 44,8 12,4 0 0 0 43.9941,7.94141 C 43.994596,7.938314 44,7.938769 44,7.935547 V 6.064453 C 44,6.029004 43.970996,6 43.935547,6 H 42.376953 A 12,4 0 0 0 32,4 Z" fill="url(#k)" style="paint-order:stroke fill markers"/>
   <ellipse cx="32" cy="6" rx="12" ry="4" fill="url(#m)" style="paint-order:stroke fill markers"/>
   <path d="m33.79 9.9552a12 4 0 0 1-9.881-1.0011l8.0907-2.9541z" fill="url(#i)" filter="url(#a)" opacity=".75" style="paint-order:stroke fill markers"/>
   <path d="m43.783 5.2421a12 4 0 0 1-6.7653 4.3915l-5.0173-3.6336z" fill="url(#h)" filter="url(#a)" opacity=".75" style="paint-order:stroke fill markers"/>
   <path d="m32 4.5833c-0.89231 2.836e-4 -1.7165 0.15908-2.1627 0.41667h-0.32389c-0.0074 0-0.01343 6e-3 -0.01343 0.01343v1.1398c0 8.96e-4 0.0015 7.92e-4 0.0016 0.0016-6.17e-4 0.00394-0.0012 0.00788-0.0016 0.011826 1e-6 0.46024 1.1193 0.83333 2.5 0.83333s2.5-0.3731 2.5-0.83333c-3.11e-4 -0.00407-7.11e-4 -0.00814-0.0012-0.012206 1.03e-4 -6.46e-4 0.0012-5.5e-4 0.0012-0.00122v-1.1398c0-0.0074-6e-3 -0.01343-0.01343-0.01343h-0.3247c-0.44601-0.2575-1.2698-0.41628-2.1619-0.41666z" fill="url(#j)" style="paint-order:stroke fill markers"/>
   <path d="m24.143 2.9767a12 4 0 0 1 12.08-0.72081l-4.2232 3.7441z" fill="url(#f)" filter="url(#a)" opacity=".5" style="paint-order:stroke fill markers"/>
   <ellipse cx="32" cy="5" rx="2.5" ry="1" fill="url(#l)" style="paint-order:stroke fill markers"/>
   <path d="m20.639 18.178c-0.07245 0-0.13086 0.04146-0.13086 0.0918v21.117c0 0.01006 0.0094 0.0183 0.01367 0.02734a11.496 2.6625 0 0 0-0.021482 0.10156 11.496 2.6625 0 0 0 0.02734 0.12695 11.5 3.5 0 0 0-0.02734 0.16602 11.5 3.5 0 0 0 11.5 3.5 11.5 3.5 0 0 0 11.5-3.5 11.5 3.5 0 0 0-0.02344-0.19531 11.496 2.6625 0 0 0 0.01563-0.09766 11.496 2.6625 0 0 0-0.01367-0.0918c0.0082-0.01186 0.02148-0.02304 0.02148-0.0371v-21.117c0-0.05033-0.0584-0.0918-0.13086-0.0918z" fill="url(#n)" style="paint-order:stroke fill markers"/>
   <ellipse cx="32" cy="39.808" rx="11.5" ry="3.5" fill-opacity=".99608" filter="url(#s)" opacity=".05" style="paint-order:stroke fill markers"/>
   <ellipse cx="32" cy="18.331" rx="11.5" ry="3.5" fill="url(#o)" style="paint-order:stroke fill markers"/>
   <path transform="matrix(1 0 0 .98005 0 .15849)" d="m33.016 7.9434v36.039a12 4 0 0 0 3.7676-0.31641v-35.723z" fill="#d6d6d5" filter="url(#p)" opacity=".25" style="paint-order:stroke fill markers"/>
   <path transform="matrix(1 0 0 .98122 0 .1492)" d="m22.564 7.9434v34.521a12 4 0 0 0 4.7266 1.2109v-35.732z" fill="#fff" fill-opacity=".99608" filter="url(#q)" opacity=".25" style="paint-order:stroke fill markers"/>
  </g>
 </g>
</svg>

<svg width="64" height="64" enable-background="new 0 0 1024 1024" image-rendering="optimizeSpeed" xmlns="http://www.w3.org/2000/svg" xmlns:xlink="http://www.w3.org/1999/xlink"><defs><linearGradient id="b"><stop stop-color="#8d8d8d" offset="0"/><stop stop-color="#2d2d2d" offset=".646"/><stop stop-color="gray" offset="1"/></linearGradient><linearGradient id="a"><stop stop-color="#6f6f6f" offset="0"/><stop stop-color="#cecfce" offset=".121"/><stop stop-color="#848484" offset=".197"/><stop stop-color="#2d2d2d" offset=".337"/><stop stop-color="#565656" offset=".489"/><stop stop-color="silver" offset=".617"/><stop stop-color="#3e3e3e" offset=".757"/><stop stop-color="#848585" offset=".918"/><stop stop-color="#969596" offset="1"/></linearGradient><linearGradient id="d" x1="-506.45" x2="-506.45" y1="-19.101" y2="1013.6" gradientTransform="matrix(.05882 0 0 .05882 61.791 3.124)" gradientUnits="userSpaceOnUse"><stop stop-color="#262626" offset="0"/><stop stop-color="#333" offset=".508"/><stop stop-color="#4a4a4a" offset="1"/></linearGradient><linearGradient id="g" x1="21" x2="45" y1="6" y2="6" gradientTransform="translate(-.854 -.035)" gradientUnits="userSpaceOnUse"><stop stop-color="#d8d9d9" offset="0"/><stop stop-color="#d4d4d2" offset=".372"/><stop stop-color="#6d6d6d" offset="1"/></linearGradient><linearGradient id="m" x1="21" x2="45" y1="6" y2="6" gradientTransform="matrix(.20833 0 0 .25 25.155 3.491)" gradientUnits="userSpaceOnUse"><stop stop-color="#d0d0d0" offset="0"/><stop stop-color="#6d6d6d" offset="1"/></linearGradient><linearGradient id="f" x1="21" x2="45" y1="6" y2="6" gradientTransform="translate(-.854 1.965)" gradientUnits="userSpaceOnUse" xlink:href="#a"/><linearGradient id="k" x1="21" x2="45" y1="6" y2="6" gradientTransform="translate(25.155 4.91) scale(.20833)" gradientUnits="userSpaceOnUse" xlink:href="#a"/><linearGradient id="h" x1="34" x2="25" y1="8" y2="8" gradientUnits="userSpaceOnUse" xlink:href="#b"/><linearGradient id="j" x1="38" x2="34" y1="4" y2="9" gradientUnits="userSpaceOnUse" xlink:href="#b"/><linearGradient id="l" x1="35" x2="24.983" y1="3" y2="4.644" gradientUnits="userSpaceOnUse"><stop stop-color="#818181" offset="0"/><stop stop-color="#454545" offset=".222"/><stop stop-color="#838383" offset=".375"/><stop stop-color="#646563" offset=".515"/><stop stop-color="#d6d6d5" offset="1"/></linearGradient><linearGradient id="p" x1="32" x2="32" y1="14.831" y2="21.831" gradientUnits="userSpaceOnUse"><stop stop-color="#8bbb3b" offset="0"/><stop stop-color="#a3d65f" stop-opacity=".922" offset="1"/></linearGradient><linearGradient id="n" x1="32" x2="32" y1="18.178" y2="43.309" gradientUnits="userSpaceOnUse"><stop stop-color="#8aba3b" offset="0"/><stop stop-color="#5b9709" stop-opacity=".996" offset="1"/></linearGradient><filter id="c" x="-.036" y="-.036" width="1.072" height="1.072" color-interpolation-filters="sRGB"><feGaussianBlur stdDeviation=".9"/></filter><filter id="i" x="-.051" y="-.125" width="1.101" height="1.25" color-interpolation-filters="sRGB"><feGaussianBlur stdDeviation=".208"/></filter><filter id="o" x="-.039" y="-.129" width="1.078" height="1.257" color-interpolation-filters="sRGB"><feGaussianBlur stdDeviation=".375"/></filter><filter id="e" x="-.157" y="-.515" width="1.313" height="2.03" color-interpolation-filters="sRGB"><feGaussianBlur stdDeviation="1.502"/></filter><filter id="r" x="-.257" y="-.034" width="1.514" height="1.068" color-interpolation-filters="sRGB"><feGaussianBlur stdDeviation=".506"/></filter><filter id="q" x="-.317" y="-.033" width="1.634" height="1.066" color-interpolation-filters="sRGB"><feGaussianBlur stdDeviation=".498"/></filter></defs><g fill-rule="evenodd"><circle cx="32" cy="32" r="30" filter="url(#c)" opacity=".25" style="paint-order:fill markers stroke"/><circle cx="32" cy="32" r="30" fill="url(#d)" style="paint-order:fill markers stroke"/><g transform="translate(0 8.98)"><path d="M20.141 7.943a.137.137 0 0 0-.137.137v31.727c0 .015.011.026.016.04a12 4 0 0 0-.024.153 12 4 0 0 0 12 4 12 4 0 0 0 12-4 12 4 0 0 0-.013-.138c.008-.018.021-.034.021-.055V8.08a.137.137 0 0 0-.136-.137z" fill="#d6d6d5" opacity=".15" style="paint-order:stroke fill markers"/><ellipse transform="matrix(1.2927 0 0 1.0607 -8.013 -2.71)" cx="32" cy="41.299" rx="11.5" ry="3.5" fill-opacity=".996" filter="url(#e)" opacity=".5" style="paint-order:stroke fill markers"/><path d="M32 4a12 4 0 0 0-10.38 2h-1.556a.065.065 0 0 0-.064.064v1.872c0 .004.007.003.008.007A12 4 0 0 0 20 8a12 4 0 0 0 12 4 12 4 0 0 0 12-4 12 4 0 0 0-.006-.059c0-.003.006-.002.006-.005V6.064A.065.065 0 0 0 43.936 6h-1.559A12 4 0 0 0 32 4Z" fill="url(#f)" style="paint-order:stroke fill markers"/><ellipse cx="32" cy="6" rx="12" ry="4" fill="url(#g)" style="paint-order:stroke fill markers"/><path d="M33.79 9.955a12 4 0 0 1-9.881-1L31.999 6z" fill="url(#h)" filter="url(#i)" opacity=".75" style="paint-order:stroke fill markers"/><path d="M43.783 5.242a12 4 0 0 1-6.765 4.392L32 6z" fill="url(#j)" filter="url(#i)" opacity=".75" style="paint-order:stroke fill markers"/><path d="M32 4.583c-.892 0-1.716.16-2.163.417h-.324a.013.013 0 0 0-.013.013v1.14l.002.002a.22.22 0 0 0-.002.012c0 .46 1.12.833 2.5.833s2.5-.373 2.5-.833l-.001-.013h.001v-1.14A.013.013 0 0 0 34.487 5h-.325c-.446-.258-1.27-.416-2.162-.417z" fill="url(#k)" style="paint-order:stroke fill markers"/><path d="M24.143 2.977a12 4 0 0 1 12.08-.721L32 6z" fill="url(#l)" filter="url(#i)" opacity=".5" style="paint-order:stroke fill markers"/><ellipse cx="32" cy="5" rx="2.5" ry="1" fill="url(#m)" style="paint-order:stroke fill markers"/><path d="M20.639 18.178c-.072 0-.13.041-.13.092v21.117c0 .01.009.018.013.027a11.496 2.663 0 0 0-.022.102 11.496 2.663 0 0 0 .028.127 11.5 3.5 0 0 0-.028.166 11.5 3.5 0 0 0 11.5 3.5 11.5 3.5 0 0 0 11.5-3.5 11.5 3.5 0 0 0-.023-.196 11.496 2.663 0 0 0 .016-.097 11.496 2.663 0 0 0-.014-.092c.008-.012.021-.023.021-.037V18.27c0-.05-.058-.092-.13-.092z" fill="url(#n)" style="paint-order:stroke fill markers"/><ellipse cx="32" cy="39.808" rx="11.5" ry="3.5" fill-opacity=".996" filter="url(#o)" opacity=".05" style="paint-order:stroke fill markers"/><ellipse cx="32" cy="18.331" rx="11.5" ry="3.5" fill="url(#p)" style="paint-order:stroke fill markers"/><path transform="matrix(1 0 0 .98005 0 .158)" d="M33.016 7.943v36.04a12 4 0 0 0 3.768-.317V7.943z" fill="#d6d6d5" filter="url(#q)" opacity=".25" style="paint-order:stroke fill markers"/><path transform="matrix(1 0 0 .98122 0 .15)" d="M22.564 7.943v34.521a12 4 0 0 0 4.727 1.211V7.943z" fill="#fff" fill-opacity=".996" filter="url(#r)" opacity=".25" style="paint-order:stroke fill markers"/></g></g></svg>
